src/loggor/reactcolor.svg

<svg height="60" preserveAspectRatio="xMidYMid meet" viewBox="0 0 56.25 44.999999" width="75" xmlns="http://www.w3.org/2000/svg" xmlns:xlink="http://www.w3.org/1999/xlink" zoomAndPan="magnify"><clipPath id="a"><path d="m15.570312 11.222656h24.425782v21.777344h-24.425782zm0 0"/></clipPath><g clip-path="url(#a)"><path d="m35.636719 18.578125c-.253907-.085937-.515625-.167969-.785157-.242187.042969-.179688.085938-.355469.121094-.527344.59375-2.832032.207032-5.113282-1.121094-5.863282-1.269531-.722656-3.351562.03125-5.449218 1.824219-.203125.171875-.40625.355469-.609375.546875-.132813-.125-.269531-.25-.402344-.367187-2.203125-1.917969-4.40625-2.726563-5.734375-1.972657-1.269531.722657-1.644531 2.867188-1.109375 5.550782.050781.257812.109375.523437.179687.792968-.3125.085938-.613281.179688-.902343.277344-2.582031.882813-4.230469 2.269532-4.230469 3.707032 0 1.484374 1.769531 2.972656 4.457031 3.875.214844.070312.433594.136718.660157.203124-.074219.289063-.136719.574219-.191407.851563-.507812 2.640625-.109375 4.734375 1.15625 5.449219 1.308594.742187 3.503907-.019532 5.644531-1.855469.167969-.144531.335938-.296875.507813-.460937.21875.210937.441406.40625.660156.589843 2.070313 1.753907 4.117188 2.460938 5.382813 1.742188 1.304687-.746094 1.730468-2.996094 1.179687-5.730469-.042969-.210938-.089843-.425781-.144531-.640625.152344-.046875.304688-.09375.453125-.140625 2.792969-.910156 4.609375-2.378906 4.609375-3.882812 0-1.441407-1.699219-2.835938-4.332031-3.726563zm-.605469 6.640625c-.132812.042969-.269531.082031-.410156.125-.308594-.960938-.722656-1.980469-1.234375-3.035156.484375-1.027344.886719-2.035156 1.1875-2.988282.246093.070313.488281.144532.722656.222657 2.257813.765625 3.632813 1.890625 3.632813 2.761719 0 .925781-1.484376 2.125-3.898438 2.914062zm-1.003906 1.945312c.246094 1.210938.28125 2.304688.117187 3.160157-.144531.769531-.433593 1.28125-.796875 1.488281-.769531.4375-2.410156-.132812-4.179687-1.628906-.207031-.171875-.410157-.355469-.613281-.550782.683593-.738281 1.371093-1.59375 2.042968-2.546874 1.175782-.101563 2.289063-.269532 3.300782-.5.046874.199218.09375.390624.128906.578124zm-10.121094 4.570313c-.75.261719-1.347656.269531-1.710938.066406-.769531-.4375-1.085937-2.117187-.652343-4.375.050781-.257812.109375-.523437.179687-.792969.996094.214844 2.101563.371094 3.285156.464844.671876.933594 1.378907 1.789063 2.089844 2.539063-.15625.148437-.308594.289062-.464844.421875-.945312.8125-1.890624 1.386718-2.726562 1.675781zm-3.515625-6.523437c-1.191406-.398438-2.171875-.917969-2.84375-1.484376-.605469-.507812-.910156-1.011718-.910156-1.421874 0-.871094 1.324219-1.984376 3.53125-2.738282.265625-.09375.546875-.179687.839843-.261718.304688.976562.703126 1.996093 1.1875 3.023437-.492187 1.046875-.894531 2.082031-1.203124 3.070313-.207032-.0625-.410157-.121094-.601563-.1875zm1.175781-7.878907c-.457031-2.300781-.152344-4.035156.613282-4.472656.816406-.460937 2.617187.199219 4.519531 1.855469.121093.105468.242187.21875.367187.332031-.710937.746094-1.410156 1.597656-2.078125 2.523437-1.144531.105469-2.242187.273438-3.253906.496094-.0625-.25-.117187-.496094-.167969-.734375zm10.515625 2.546875c-.242187-.40625-.488281-.808594-.742187-1.195312.777344.097656 1.523437.222656 2.222656.382812-.207031.660156-.46875 1.351563-.777344 2.058594-.222656-.410156-.457031-.828125-.703125-1.246094zm-4.289062-4.101562c.480469.511718.964843 1.082031 1.4375 1.703125-.476563-.023438-.960938-.035157-1.449219-.035157-.480469 0-.960938.011719-1.433594.035157.472656-.617188.960938-1.183594 1.445313-1.703125zm-4.3125 4.109375c-.242188.410156-.472657.824219-.6875 1.238281-.304688-.707031-.566407-1.398438-.777344-2.070312.695313-.152344 1.4375-.277344 2.210937-.375-.257812.394531-.503906.796874-.746093 1.207031zm.769531 6.113281c-.800781-.085938-1.550781-.207031-2.246094-.355469.214844-.683593.480469-1.390625.789063-2.113281.21875.414062.449219.828125.691406 1.238281.246094.421875.5.828125.765625 1.230469zm3.574219 2.902344c-.496094-.523438-.988281-1.101563-1.46875-1.722656.46875.015624.945312.027343 1.425781.027343.5 0 .988281-.011719 1.472656-.035156-.472656.636719-.953125 1.214844-1.429687 1.730469zm4.96875-5.40625c.324219.726562.601562 1.433594.820312 2.105468-.707031.15625-1.472656.285157-2.273437.378907.25-.390625.5-.800781.746094-1.21875.25-.421875.484374-.84375.707031-1.265625zm-1.609375.757812c-.378906.648438-.773438 1.265625-1.167969 1.851563-.722656.050781-1.472656.078125-2.234375.078125-.757812 0-1.496094-.023438-2.207031-.070313-.410157-.589843-.8125-1.210937-1.191407-1.855469-.375-.640624-.722656-1.285156-1.039062-1.929687.316406-.644531.664062-1.289063 1.039062-1.929687.375-.640626.769532-1.257813 1.179688-1.847657.726562-.054687 1.46875-.082031 2.21875-.082031.757812 0 1.5.027344 2.226562.082031.402344.585938.796876 1.199219 1.171876 1.84375.382812.648438.734374 1.289063 1.050781 1.921875-.316407.640625-.664063 1.289063-1.046875 1.9375zm2.148437-11.425781c.816407.464844 1.132813 2.328125.621094 4.773437-.03125.15625-.070313.316407-.109375.476563-1.011719-.230469-2.109375-.398437-3.257812-.503906-.671876-.9375-1.367188-1.789063-2.0625-2.527344.1875-.175781.375-.347656.5625-.503906 1.796874-1.539063 3.480468-2.148438 4.246093-1.714844zm-5.550781 7.335937c1.203125 0 2.179688.957032 2.179688 2.140626 0 1.179687-.976563 2.136718-2.179688 2.136718-1.199219 0-2.175781-.957031-2.175781-2.136718 0-1.183594.976562-2.140626 2.175781-2.140626zm0 0" fill="#dcdcdc"/></g></svg>

<svg xmlns="http://www.w3.org/2000/svg" xmlns:xlink="http://www.w3.org/1999/xlink" width="75" zoomAndPan="magnify" viewBox="0 0 56.25 44.999999" height="60" preserveAspectRatio="xMidYMid meet" version="1.0"><defs><clipPath id="ee74aa2fc4"><path d="M 15.570312 11.222656 L 39.996094 11.222656 L 39.996094 33 L 15.570312 33 Z M 15.570312 11.222656 " clip-rule="nonzero"/></clipPath></defs><g clip-path="url(#ee74aa2fc4)"><path fill="#dcdcdc" d="M 35.636719 18.578125 C 35.382812 18.492188 35.121094 18.410156 34.851562 18.335938 C 34.894531 18.15625 34.9375 17.980469 34.972656 17.808594 C 35.566406 14.976562 35.179688 12.695312 33.851562 11.945312 C 32.582031 11.222656 30.5 11.976562 28.402344 13.769531 C 28.199219 13.941406 27.996094 14.125 27.792969 14.316406 C 27.660156 14.191406 27.523438 14.066406 27.390625 13.949219 C 25.1875 12.03125 22.984375 11.222656 21.65625 11.976562 C 20.386719 12.699219 20.011719 14.84375 20.546875 17.527344 C 20.597656 17.785156 20.65625 18.050781 20.726562 18.320312 C 20.414062 18.40625 20.113281 18.5 19.824219 18.597656 C 17.242188 19.480469 15.59375 20.867188 15.59375 22.304688 C 15.59375 23.789062 17.363281 25.277344 20.050781 26.179688 C 20.265625 26.25 20.484375 26.316406 20.710938 26.382812 C 20.636719 26.671875 20.574219 26.957031 20.519531 27.234375 C 20.011719 29.875 20.410156 31.96875 21.675781 32.683594 C 22.984375 33.425781 25.179688 32.664062 27.320312 30.828125 C 27.488281 30.683594 27.65625 30.53125 27.828125 30.367188 C 28.046875 30.578125 28.269531 30.773438 28.488281 30.957031 C 30.558594 32.710938 32.605469 33.417969 33.871094 32.699219 C 35.175781 31.953125 35.601562 29.703125 35.050781 26.96875 C 35.007812 26.757812 34.960938 26.542969 34.90625 26.328125 C 35.058594 26.28125 35.210938 26.234375 35.359375 26.1875 C 38.152344 25.277344 39.96875 23.808594 39.96875 22.304688 C 39.96875 20.863281 38.269531 19.46875 35.636719 18.578125 Z M 35.03125 25.21875 C 34.898438 25.261719 34.761719 25.300781 34.621094 25.34375 C 34.3125 24.382812 33.898438 23.363281 33.386719 22.308594 C 33.871094 21.28125 34.273438 20.273438 34.574219 19.320312 C 34.820312 19.390625 35.0625 19.464844 35.296875 19.542969 C 37.554688 20.308594 38.929688 21.433594 38.929688 22.304688 C 38.929688 23.230469 37.445312 24.429688 35.03125 25.21875 Z M 34.027344 27.164062 C 34.273438 28.375 34.308594 29.46875 34.144531 30.324219 C 34 31.09375 33.710938 31.605469 33.347656 31.8125 C 32.578125 32.25 30.9375 31.679688 29.167969 30.183594 C 28.960938 30.011719 28.757812 29.828125 28.554688 29.632812 C 29.238281 28.894531 29.925781 28.039062 30.597656 27.085938 C 31.773438 26.984375 32.886719 26.816406 33.898438 26.585938 C 33.945312 26.785156 33.992188 26.976562 34.027344 27.164062 Z M 23.90625 31.734375 C 23.15625 31.996094 22.558594 32.003906 22.195312 31.800781 C 21.425781 31.363281 21.109375 29.683594 21.542969 27.425781 C 21.59375 27.167969 21.652344 26.902344 21.722656 26.632812 C 22.71875 26.847656 23.824219 27.003906 25.007812 27.097656 C 25.679688 28.03125 26.386719 28.886719 27.097656 29.636719 C 26.941406 29.785156 26.789062 29.925781 26.632812 30.058594 C 25.6875 30.871094 24.742188 31.445312 23.90625 31.734375 Z M 20.390625 25.210938 C 19.199219 24.8125 18.21875 24.292969 17.546875 23.726562 C 16.941406 23.21875 16.636719 22.714844 16.636719 22.304688 C 16.636719 21.433594 17.960938 20.320312 20.167969 19.566406 C 20.433594 19.472656 20.714844 19.386719 21.007812 19.304688 C 21.3125 20.28125 21.710938 21.300781 22.195312 22.328125 C 21.703125 23.375 21.300781 24.410156 20.992188 25.398438 C 20.785156 25.335938 20.582031 25.277344 20.390625 25.210938 Z M 21.566406 17.332031 C 21.109375 15.03125 21.414062 13.296875 22.179688 12.859375 C 22.996094 12.398438 24.796875 13.058594 26.699219 14.714844 C 26.820312 14.820312 26.941406 14.933594 27.066406 15.046875 C 26.355469 15.792969 25.65625 16.644531 24.988281 17.570312 C 23.84375 17.675781 22.746094 17.84375 21.734375 18.066406 C 21.671875 17.816406 21.617188 17.570312 21.566406 17.332031 Z M 32.082031 19.878906 C 31.839844 19.472656 31.59375 19.070312 31.339844 18.683594 C 32.117188 18.78125 32.863281 18.90625 33.5625 19.066406 C 33.355469 19.726562 33.09375 20.417969 32.785156 21.125 C 32.5625 20.714844 32.328125 20.296875 32.082031 19.878906 Z M 27.792969 15.777344 C 28.273438 16.289062 28.757812 16.859375 29.230469 17.480469 C 28.753906 17.457031 28.269531 17.445312 27.78125 17.445312 C 27.300781 17.445312 26.820312 17.457031 26.347656 17.480469 C 26.820312 16.863281 27.308594 16.296875 27.792969 15.777344 Z M 23.480469 19.886719 C 23.238281 20.296875 23.007812 20.710938 22.792969 21.125 C 22.488281 20.417969 22.226562 19.726562 22.015625 19.054688 C 22.710938 18.902344 23.453125 18.777344 24.226562 18.679688 C 23.96875 19.074219 23.722656 19.476562 23.480469 19.886719 Z M 24.25 26 C 23.449219 25.914062 22.699219 25.792969 22.003906 25.644531 C 22.21875 24.960938 22.484375 24.253906 22.792969 23.53125 C 23.011719 23.945312 23.242188 24.359375 23.484375 24.769531 C 23.730469 25.191406 23.984375 25.597656 24.25 26 Z M 27.824219 28.902344 C 27.328125 28.378906 26.835938 27.800781 26.355469 27.179688 C 26.824219 27.195312 27.300781 27.207031 27.78125 27.207031 C 28.28125 27.207031 28.769531 27.195312 29.253906 27.171875 C 28.78125 27.808594 28.300781 28.386719 27.824219 28.902344 Z M 32.792969 23.496094 C 33.117188 24.222656 33.394531 24.929688 33.613281 25.601562 C 32.90625 25.757812 32.140625 25.886719 31.339844 25.980469 C 31.589844 25.589844 31.839844 25.179688 32.085938 24.761719 C 32.335938 24.339844 32.570312 23.917969 32.792969 23.496094 Z M 31.183594 24.253906 C 30.804688 24.902344 30.410156 25.519531 30.015625 26.105469 C 29.292969 26.15625 28.542969 26.183594 27.78125 26.183594 C 27.023438 26.183594 26.285156 26.160156 25.574219 26.113281 C 25.164062 25.523438 24.761719 24.902344 24.382812 24.257812 C 24.007812 23.617188 23.660156 22.972656 23.34375 22.328125 C 23.660156 21.683594 24.007812 21.039062 24.382812 20.398438 C 24.757812 19.757812 25.152344 19.140625 25.5625 18.550781 C 26.289062 18.496094 27.03125 18.46875 27.78125 18.46875 C 28.539062 18.46875 29.28125 18.496094 30.007812 18.550781 C 30.410156 19.136719 30.804688 19.75 31.179688 20.394531 C 31.5625 21.042969 31.914062 21.683594 32.230469 22.316406 C 31.914062 22.957031 31.566406 23.605469 31.183594 24.253906 Z M 33.332031 12.828125 C 34.148438 13.292969 34.464844 15.15625 33.953125 17.601562 C 33.921875 17.757812 33.882812 17.917969 33.84375 18.078125 C 32.832031 17.847656 31.734375 17.679688 30.585938 17.574219 C 29.914062 16.636719 29.21875 15.785156 28.523438 15.046875 C 28.710938 14.871094 28.898438 14.699219 29.085938 14.542969 C 30.882812 13.003906 32.566406 12.394531 33.332031 12.828125 Z M 27.78125 20.164062 C 28.984375 20.164062 29.960938 21.121094 29.960938 22.304688 C 29.960938 23.484375 28.984375 24.441406 27.78125 24.441406 C 26.582031 24.441406 25.605469 23.484375 25.605469 22.304688 C 25.605469 21.121094 26.582031 20.164062 27.78125 20.164062 Z M 27.78125 20.164062 " fill-opacity="1" fill-rule="nonzero"/></g></svg>
